X:11508
T:Mueira de Bual (MG 12) (Arrg.)
R:Mueira
C:Tradicional
S:Msica Tradicional Asturiana, (C) Tello & Tito. Asturies, 2001.
S:http://pagina.de/MusTradAst <telloytito@asturies.org>
O:Bual
A:Asturies
G:Arrg.
Z:Mtodu de Gaita 12
E:Nivel 1
M:6/8
L:1/8
Q:3/8=88
K:C
GAB|:"F"cBA "C"GAG|"Am"E2C "C"G2G|"C"GAG "Dm"FEF|
"C"G2G "G"GAB|"F"cBA "C"GAG|"Am"E2C "C"G2G|"C"GAG "Dm"FED|
[1 "Am"C3 "G"GAB:|[2 "C"C3 "C"CDE||
|:"C"CDE "C"CDE|"F"F2F "Dm"DEF|"Dm"DEF "Dm"DEF|
"C"G2G "C"CDE|"C"CDE "C"CDE|"F"F2F "Dm"DEF|
"C"GAG "Dm"FED|[1 "C"E2C "C"CDE:|[2 "C"C3 "C"CDE|
|:"F"F3 "F"F2F|"C"EDC "C"E2E|"C"EDC "G"B,CD|
"C"EDC "C"CDE|"F"F2F "F"AGF|"C"EDC "C"E2E|
"C"EDC "G"B,CD|[1 "C"C3 "C"CDE:|[2 "C"C6-||
"C"C6-|"F"C z5||
